icons/derived-value-24.svg

<svg id="icons" xmlns="http://www.w3.org/2000/svg" viewBox="0 0 24 24"><defs><style>.cls-1{fill:none;}</style></defs><path d="M22.56946,15H1.43054A.43053.43053,0,0,0,1,15.43054v6.13892A.43053.43053,0,0,0,1.43054,22H22.56946A.43053.43053,0,0,0,23,21.56946V15.43054A.43053.43053,0,0,0,22.56946,15ZM22,21H2V16H22ZM23,5.43054v6.13892A.43053.43053,0,0,1,22.56946,12H1.43054A.43053.43053,0,0,1,1,11.56946V5.43054A.43053.43053,0,0,1,1.43054,5H6.82745c.01758.01685.03858.02863.05585.0459L7.83728,6H2v5H22V6H14V5h8.56946A.43053.43053,0,0,1,23,5.43054ZM13,3V9H7V8h4.251L7.59147,4.32457A4.49886,4.49886,0,0,0,4.40342,3H0V2H4.37452A5.499,5.499,0,0,1,8.30414,3.65231L12,7.42787V3Z"/><rect class="cls-1" width="24" height="24"/></svg>

<svg xmlns="http://www.w3.org/2000/svg" viewBox="0 0 24 24"><path d="M22.57 15H1.43a.43.43 0 0 0-.43.43v6.14a.43.43 0 0 0 .43.43h21.14a.43.43 0 0 0 .43-.43v-6.14a.43.43 0 0 0-.43-.43zM22 21H2v-5h20zm1-15.57v6.14a.43.43 0 0 1-.43.43H1.43a.43.43 0 0 1-.43-.43V5.43A.43.43 0 0 1 1.43 5h5.397c.018.017.039.029.056.046L7.837 6H2v5h20V6h-8V5h8.57a.43.43 0 0 1 .43.43zM13 3v6H7V8h4.251l-3.66-3.675A4.499 4.499 0 0 0 4.403 3H0V2h4.375a5.499 5.499 0 0 1 3.93 1.652L12 7.428V3z"/><path fill="none" d="M0 0h24v24H0z"/></svg>
